!!!!SEGMENT: pl-wtm--r-1626_stefani-jozef--dniu-pozadany-dniu-mily.krn
!!!cenid: 18xx:2363
!!!COM: Stefani, Józef
!!!COM-rism: pe30024097
!!!CDT: 1800/04/16-1876/03/19
!!!CNT: Polish
!!!OTL: Dniu pożądany, dniu miły
!!!PDT:
!!!AGN:
!!!SMS-siglum: PL-Wtm
!!!SMS-shelfmark: R 1626
!!!NIFC-rismID: 1001115615
!!!URL-scan: http://repozytorium.nifc.pl/skany/pl-wtm-nut--r1626
!!!ONB-nifc:
!!!SMS-variant:
!!!SMS-altvar:
!!!OMD: Andantino.
**kern	**dynam	**kern	**dynam	**kern	**text	**text	**text	**dynam
*part3	*	*part2	*	*part1	*part1	*part1	*part1	*part1
*staff3	*	*staff2	*	*staff1	*staff1	*staff1	*staff1	*
*I"Głos III	*	*I"Głos II	*	*I"Głos I	*	*	*	*
*>[A,A,A]	*>[A,A,A]	*>[A,A,A]	*>[A,A,A]	*>[A,A,A]	*>[A,A,A]	*>[A,A,A]	*>[A,A,A]	*>[A,A,A]
*>A	*>A	*>A	*>A	*>A	*>A	*>A	*>A	*>A
*clefG2	*	*clefG2	*	*clefG2	*	*	*	*
*k[b-e-a-d-]	*	*k[b-e-a-d-]	*	*k[b-e-a-d-]	*	*	*	*
*M3/4	*	*M3/4	*	*M3/4	*	*	*	*
*all\right	*	*all\right	*	*all\right	*	*	*	*
!LO:TX:a:t=[segno]:problem:segno na kresce taktowej	!	!LO:TX:a:t=[segno]:problem:segno na kresce taktowej	!	!LO:TX:a:t=[segno]:problem:segno na kresce taktowej	!	!	!	!
!	!	!	!	!LO:TX:a:i:t=Powinszowanie dla Praxedy Brodzińskiej. \nŚpiew na trzy głosy, wiersz \n muzyka Józefa Stefaniego	!	!	!	!LO:DY:rj
8A-/	.	8e-/	.	8cc\	1.) Dniu	2.) Przyj-	3.) Gdy-	mf
8A-/	.	8c/	.	8a-/	po-	-mij	-byś	.
8G/	.	8e-/	.	8b-/	-żą-	o-	nam	.
=1	=1	=1	=1	=1	=1	=1	=1	=1
*^	*	*^	*	*^	*	*	*	*
4A-/	4ryy	.	4e-/	4e-\	.	4cc\	4ryy	-da-	-fia-	o	.
8c/	4c\	.	8e-/	4e-\	.	4a-\	8a-/	-ny,	-rę	Sio-	.
8r	.	.	8r	.	.	.	8r	.	.	.	.
4e-/	4e-\	.	4g/	4g\	.	4b-^\	4b-/	dniu	tę	-stro	.
=2	=2	=2	=2	=2	=2	=2	=2	=2	=2	=2	=2
4a-/	2ryy	.	4a-/	2ryy	.	4cc\	2ryy	mi-	mi-	dro-	.
8A-/	.	.	8a-/	.	.	8cc\	.	-ły	-le	-ga	.
8r	.	.	8r	.	.	8r	.	.	.	.	.
8A-\	8ryy	.	8c\	8ryy	.	8a-\	8ryy	.	któ-	Ży-	.
!	!LO:N:vis=4	!	!	!LO:N:vis=4	!	!	!LO:N:vis=4	!	!	!	!
8A-\	8A-/	.	8c\	8c/	.	8a-\	8a-/	Tyś	-rą	-ła	.
*v	*v	*	*	*	*	*	*	*	*	*	*
*	*	*v	*v	*	*	*	*	*	*	*
!!LO:LB:g=original
=3	=3	=3	=3	=3	=3	=3	=3	=3	=3
4G/	.	4e-/	.	[4b-/	4b-\	iest	ci	dłu-	.
8G/	.	8e-/	.	8b-/]	8b-\	po-	z ser-	.	.
8d-/	.	8e-/	.	8g/	8ryy	-rą	-ca	-gie	.
8.c/	.	8.e-/	.	8.a-/	4ryy	naj-	.	set-	<
16A-/	.	16a-/	.	16cc\	.	-szczę-	czy-	-ne	[[
*	*	*	*	*v	*v	*	*	*	*
=4	=4	=4	=4	=4	=4	=4	=4	=4
4e-/	.	4a-/	.	4cc\	-śliw-	-nie-	la-	>
8e-/	.	8g/	.	8b-\	-szą:	-my	-ta	]
4dn^>/	.	4f^>/	.	4b-^\	W któ-	Zy-	W ła-	.
8d/	.	8f/	.	8a-/	-rej	-cząć	-sce	.
=5	=5	=5	=5	=5	=5	=5	=5	=5
4e-/	.	4e-/	.	4g/	to	by	wszech-	.
8e-/	.	8e-/	.	8g/	co	przez	-mo-	.
4en^>/	.	4g^>/	.	4cc^\	ser-	wszyst-	-cne-	.
8e/	.	8g/	.	8b-\	-ca	-kie	-go	.
=6	=6	=6	=6	=6	=6	=6	=6	=6
*^	*	*^	*	*^	*	*	*	*
4f/	4.ryy	.	4f/	4.ryy	.	4a-/	4.ryy	kry-	chwi-	Bo-	.
8f/	.	.	8f/	.	.	8a-/	.	-ły	-le	-ga	.
8e-/	8e-\L	.	8f/	4f\	.	8an/	8an\L	o-	Bóg	w po-	.
8dn/	8dn\J	.	8f/	.	.	8b-/	8b-\J	-ka-	.	-sza-	.
8d/	8d\	.	8f/	8f\	.	8a-X/	8a-\	-żą	Ci	-no-	.
!!LO:LB:g=original
=7	=7	=7	=7	=7	=7	=7	=7	=7	=7	=7	=7
!	!	!	!LO:TX:b:t=wo	!	!	!	!	!	!	!	!
(8e-/L	2ryy	.	4e-/	2ryy	.	4g/	2ryy	wdzię-	szczęś-	-wa-	.
8d-/J)	.	.	.	.	.	.	.	.	.	.	.
(8c/L	.	.	4e-/	.	.	4g/	.	-czność	-cił	-niu	.
8c-X/J)	.	.	.	.	.	.	.	.	.	.	.
(<8B-/L	8B-\	.	8e-/L	8e-\	.	(8g/L	8g\	naj-	na	od	.
8A-/J)	8A-\	.	8dn/J	8dn\	.	8f/J)	8f\	.	tej	.	.
=8	=8	=8	=8	=8	=8	=8	=8	=8	=8	=8	=8
4G/	4.ryy	.	4e-/	4.ryy	.	4b-/	4.ryy	-tkli-	zie-	świa-	.
8G/	.	.	8e-/	.	.	8b-/	.	-wszą	-mi	-ta	.
8G/	8G\L	.	8e-/	4e-\	.	8bn/L	8bn\	o-	Bóg	w po-	>
8A-/	8A-\J	.	8e-/	.	.	8cc/J	8cc\	-ka-	.	-sza-	.
8c-X/	8c-\	.	8f/	8f\	.	8a-/	8a-\	-żą	Ci	-no-	]
=9	=9	=9	=9	=9	=9	=9	=9	=9	=9	=9	=9
4B-/	8B-\	.	8e-\	4e-/	.	8g\	4g/	Wdzię-	szczę-	-wa-	.
.	8B-\	.	8e-\	.	.	8g\	.	.	-ścił	.	.
4B-/	2ryy	.	4e-/	2ryy	.	4f/	2ryy	-czność	na	-niu	.
4B-/	.	.	4dn/	.	.	4b-/	.	naj-	tej	od	.
=10	=10	=10	=10	=10	=10	=10	=10	=10	=10	=10	=10
4cn/	4.ryy	.	4e-/	4.ryy	.	4g/	4.ryy	-tkli-	zie-	świa-	.
8c/	.	.	8e-/	.	.	8g/	.	-wszą	-mi	-ta	.
!	!	!	!	!	!	!	!	!	!	!	!LO:DY:rj
8d-/	8d-\L	.	8e-/	4e-\	.	8g/	8g\L	o-	Bog	w po-	f
8c/	8c\J	.	8e-/	.	.	8a-/	8a-\J	-ka-	.	-sza-	.
8A-/	8A-\	.	8e-/	8e-\	.	8cc/	8cc\	-żą	Ci	-no-	.
*v	*v	*	*	*	*	*	*	*	*	*	*
*	*	*v	*v	*	*	*	*	*	*	*
!!LO:LB:g=original
=11	=11	=11	=11	=11	=11	=11	=11	=11	=11
!	!	!	!	!	!	!	!	!	!LO:DY:rj
4B-/	.	4e-/	.	8g\	4g/	wdzię-	szczęś-	-wa-	p
.	.	.	.	8g\	.	.	-cił	.	.
4B-/	.	4e-/	.	4f/	2ryy	-czność	na	-niu	.
4B-/	.	4dn/	.	4b-/	.	naj-	tej	od	.
=12	=12	=12	=12	=12	=12	=12	=12	=12	=12
*^	*	*^	*	*	*	*	*	*	*
4e-/	2ryy	.	4e-/	2ryy	.	4e-/	2ryy	-tkliw-	zie-	świa-	.
8e-/	.	.	8e-/	.	.	8e-/	.	-szą.	-mi?	-ta.	.
8r	.	.	8r	.	.	8r	.	.	.	.	.
!	!	!LO:DY:a:rj	!	!	!LO:DY:a:rj	!	!	!	!	!	!LO:DY:rj
8e-\	8.e-/	f	8e-\	8.e-/	f	8ee-\	8.ee-/	Cóż	A	A	f
16e-\	.	.	16e-\	.	.	16ee-\	.	.	.	po	.
16d-X/	16ryy	.	16e-/	16ryy	.	16g/	16ryy	Ci	w nad-	Twym	.
=13	=13	=13	=13	=13	=13	=13	=13	=13	=13	=13	=13
4c/	2ryy	.	4e-/	2ryy	.	4a-/	2ryy	za-	-gro-	zej-	.
4c/	.	.	4e-/	.	.	4a-/	.	-cna	-dę	-ściu	.
!	!LO:N:vis=8	!	!	!LO:N:vis=8	!	!	!LO:N:vis=8	!	!	!	!
8.c/	8.c\L	.	8.en/	8.en\L	.	8.cc/	(>8.cc\L	Sio-	za-	Ko-	.
16en/	16en\Jk	.	16g/	16g\Jk	.	16g/	16g\Jk)	-stro	-Twe	.	.
*v	*v	*	*	*	*	*v	*v	*	*	*	*
*	*	*v	*v	*	*	*	*	*	*
=14	=14	=14	=14	=14	=14	=14	=14	=14
4f/	.	4f/	.	4a-/	da-	cno-	-ro-	.
4f/	.	4f/	.	4a-/	-my	-ty	-ną	.
4e-X/	.	4g/	.	4b-/	W tym	Po-	Niech	.
!!LO:PB:g=original
=15	=15	=15	=15	=15	=15	=15	=15	=15
*^	*	*^	*	*^	*	*	*	*
4.A-/	2ryy	.	4.a-/	2ryy	.	4.cc\	2ryy	dniu	-li-	Cię	<
16c/	.	.	16a-/	.	.	16ee-\	.	I-	-czył	Chrys-	.
16c/	.	.	16a-/	.	.	16ee-\	.	-mie-	mię-	-tus	.
8B-/	8B-\	.	8g/	8g\	.	8dd-\	8dd-/	-nia	-dzy	u-	[ >
8A-/	8A-\	.	8a-/	8a-\	.	8cc\	8cc/	Two-	świę-	-da-	]
*v	*v	*	*	*	*	*	*	*	*	*	*
*	*	*v	*v	*	*	*	*	*	*	*
=16	=16	=16	=16	=16	=16	=16	=16	=16	=16
4e-/	.	4a-/	.	4cc\	2ryy	-je-	-te-	-ru-	.
4e-/	.	4g/	.	4b-\	.	-go?	-mi	-je	.
!	!	!	!	!	!	!	!	!	!LO:DY:rj
8.e-/	.	8g/	.	8b-\	8b-/	Prócz	Te-	Uwię-	mf <
.	.	(16a-/LL	.	16cc\LL	16cc/	wdzię-	-go	-czy	.
16d-/	.	16b-/JJ)	.	16dd-X\JJ	16dd-X/	.	.	.	[[
=17	=17	=17	=17	=17	=17	=17	=17	=17	=17
*^	*	*^	*	*	*	*	*	*	*
4c/	2ryy	.	4a-/	2ryy	.	4ee-\	2ryy	-czno-	my	lau-	>
4c/	.	.	4a-/	.	.	4a-/	.	-ści	wszys-	-rem	]
!	!LO:N:vis=8	!	!	!	!	!	!	!	!	!	!
8.e-/	8.e-\L	.	8g/	8g\L	.	(8b-/L	8b-\	nic	-tkie	Twe	<
.	.	.	16a-/LL	(16a-\L	.	16cc/L	16cc\LL	nie	sie-	.	.
16d-/	16d-\Jk	.	16b-/JJ	16b-\JJ)	.	16dd-/JJ)	16dd-\JJ	.	.	.	[[
*v	*v	*	*	*	*	*v	*v	*	*	*	*
*	*	*v	*v	*	*	*	*	*	*
!!LO:LB:g=original
=18	=18	=18	=18	=18	=18	=18	=18	=18
4c/	.	4a-/	.	4ee-\	ma-	-ro-	skro-	>
8c/	.	8a-/	.	8a-/	-my	-ty	-nie	]
!	!	!	!	!	!	!	!	!LO:DY:rj
8B-/	.	8f/	.	8dd-\	Cie-	Dla	miej-	f
8B-/	.	8f/	.	8dd-\	-bie	Cie-	-sce	.
8d-/	.	8f/	.	8b-\	o	-bie	z Pa-	.
=19	=19	=19	=19	=19	=19	=19	=19	=19
4e-/	.	4a-/	.	4cc\	Sio-	Sio-	-tron-	.
4e-/	.	4a-/	.	4b-\	-stro	-stro	-ką	.
4e-/	.	4g/	.	4ee-\	go-	ży-	z go-	.
=20	=20	=20	=20	=20	=20	=20	=20	=20
4en/	.	4g/	.	4dd-\	-dne-	-cze-	-tu-	>
8f/	.	8a-/	.	8cc\	-go	-my	-je	]
8d-/	.	8a-/	.	8ff\	Cie-	Dla	miej-	.
8d-/	.	8a-/	.	8ff\	-bie	Cie-	-sce	.
8B-/	.	8a-/	.	8dd-\	o	-bie	z Pa-	.
!!LO:LB:g=original
=21	=21	=21	=21	=21	=21	=21	=21	=21
4e-/	.	4a-/	.	4cc\	Sio-	Sio-	-tron-	.
4e-/	.	4a-/	.	4b-\	-stro	-stro	-ką	.
4e-/	.	4g/	.	4ee-\	go-	ży-	z go-	.
=22	=22	=22	=22	=22	=22	=22	=22	=22
4a-/	.	4a-/	.	4a-/	-dne-	-cze-	-tu-	.
8a-/	.	8a-/	.	8a-/	-go.	-my	-je	.
8r	.	8r	.	8r	.	.	.	.
4a-/	.	4a-/	.	4a-/	Cie-	Dla	miej-	.
=23	=23	=23	=23	=23	=23	=23	=23	=23
*	*	*	*	*2\right	*	*	*	*
2f/	.	2a-/	.	2dd-\	-bie	Cie-	-sce	.
4d-/	.	4a-/	.	4ff\	o	-bie	z Pa-	.
=24	=24	=24	=24	=24	=24	=24	=24	=24
2c/	.	2a-/	.	2ee-\	Sio-	Sio-	-tron-	.
8B-/	.	8g/	.	8dd-\	-stro	-stro	-ką	.
8A-/	.	8a-/	.	8cc\	go-	ży-	z go-	.
=25	=25	=25	=25	=25	=25	=25	=25	=25
2d-/	.	(>2f/	.	(2b-\	-dne-	-cze-	-tu-	.
4e-/	.	4g/)	.	4ee-\)	.	.	.	.
!!LO:LB:g=original
=26	=26	=26	=26	=26	=26	=26	=26	=26
2f/	.	2a-/	.	2cc\	-go	-my	-je	.
4dn/	.	4a-/	.	4bn\	go-	ży-	z go-	.
=27	=27	=27	=27	=27	=27	=27	=27	=27
2.e-/	.	2a-/	.	(4cc\	-dne-	-cze-	-tu-	.
.	.	.	.	4b-X\	.	.	.	.
.	.	4g/	.	4ee-\)	.	.	.	.
=28	=28	=28	=28	=28	=28	=28	=28	=28
4a-/	.	4a-/	.	4a-/	-go.	-my	-je.	.
!LO:TX:a:t=[segno]:problem:segno na kresce taktowej	!	!LO:TX:a:t=[segno]:problem:segno na kresce taktowej	!	!LO:TX:a:t=[segno]:problem:segno na kresce taktowej	!	!	!	!
!	!	!	!	!LO:TX:b:t=d'al Segno.	!	!	!	!
8r	.	8r	.	8r	.	.	.	.
==	==	==	==	==	==	==	==	==
*-	*-	*-	*-	*-	*-	*-	*-	*-
!!!system-decoration: {s1,s2,s3}
!!!RDF**kern: > = above
!!!RDF**kern: < = below
!!!ENC: Marta Lawrence
!!!END: 2021-06-14
!!!ENC: Andrzej Gręziak
!!!END: 2021-06-05
